X: 144
T: Taiping nian
L: 1/8
M: 2/4
K: Eb
FF2G [I:setbarnb 1]| 
B3e | 
c B G F | 
B2E G | 
F4 | 
FF2G | 
B3e | 
c B G F | 
B B E G | 
F4 | 
C2B2 | 
B2G F | 
E2E2 | 
F G F E | 
CE2C | 
B,4 | 
C E C E | 
F4 | 
G2F E | 
C C E C | 
c B A G | 
B4 |]

@@@ Tune index: 9018
